illustrations/assets/Code error/il_axis_code_error_light.svg

<svg xmlns="http://www.w3.org/2000/svg" width="231" height="160" fill="none" viewBox="0 0 231 160">
  <path fill="#ECECEC" d="M112.932 147.8c38.957 0 70.538-30.624 70.538-68.4 0-37.7763-31.581-68.4-70.538-68.4-38.957 0-70.538 30.6237-70.538 68.4 0 37.776 31.581 68.4 70.538 68.4Z"/>
  <g filter="url(#filter0_d_3871_353912)">
    <path fill="url(#paint0_linear_3871_353912)" d="M177.642 38.5836v81.0594c0 2.933-2.49 5.348-5.515 5.348H54.4708c-3.0244 0-5.515-2.415-5.515-5.348V38.5836c0-2.9326 2.4906-5.3478 5.515-5.3478H172.127c3.025 0 5.515 2.4152 5.515 5.3478Z"/>
  </g>
  <rect width="116.006" height="22.9824" x="55.7054" y="76.6639" fill="#EDE5DA" rx="2.7"/>
  <path fill="url(#paint1_linear_3871_353912)" d="M177.642 38.5836v3.8815H48.9558v-3.8815c0-2.9326 2.4906-5.3478 5.515-5.3478H172.127c3.025 0 5.515 2.4152 5.515 5.3478Z"/>
  <path fill="#F4F1EA" d="M54.7373 39.5324c.9334 0 1.6901-.7337 1.6901-1.6388s-.7567-1.6388-1.6901-1.6388c-.9334 0-1.6901.7337-1.6901 1.6388s.7567 1.6388 1.6901 1.6388Z"/>
  <path fill="#E4E0DA" d="M59.9854 39.5324c.9334 0 1.69-.7337 1.69-1.6388s-.7566-1.6388-1.69-1.6388c-.9334 0-1.6901.7337-1.6901 1.6388s.7567 1.6388 1.6901 1.6388Z" opacity=".6"/>
  <path fill="#BCB9B3" d="M65.3226 39.5324c.9334 0 1.6901-.7337 1.6901-1.6388s-.7567-1.6388-1.6901-1.6388c-.9334 0-1.69.7337-1.69 1.6388s.7566 1.6388 1.69 1.6388Z" opacity=".4"/>
  <path fill="#EDE5DA" d="M81.8463 53.3169H63.13c-1.1697 0-2.1445-1.1783-2.1445-2.1209 0-1.1783.9748-2.1209 2.1445-2.1209h18.7163c1.1698 0 2.1446 1.1783 2.1446 2.1209 0 1.1783-.9748 2.1209-2.1446 2.1209Z"/>
  <path fill="#BCB9B3" d="M76.7847 85.1988H63.0793c-1.1421 0-2.0938-1.1783-2.0938-2.121 0-1.1783.9517-2.1209 2.0938-2.1209h13.7054c1.1421 0 2.0939 1.1783 2.0939 2.1209-.1904.9427-1.1421 2.121-2.0939 2.121ZM164.864 85.1988h-26.271c-1.201 0-2.202-1.1783-2.202-2.121 0-1.1783 1.001-2.1209 2.202-2.1209h26.271c1.201 0 2.201 1.1783 2.201 2.1209-.2.9427-1.2 2.121-2.201 2.121Z"/>
  <path fill="url(#paint2_linear_3871_353912)" d="m171.622 85.5301-22.725 36.2229c-2.744 4.373.4 10.056 5.562 10.056h45.45c5.162 0 8.306-5.683 5.562-10.056l-22.725-36.2229c-2.573-4.1023-8.551-4.1023-11.124 0Z"/>
  <path fill="#fff" d="M177.325 97.2129c-1.594 0-2.86 1.3394-2.771 2.9311l.689 12.323c.062 1.105.976 1.969 2.082 1.969 1.107 0 2.02-.864 2.082-1.969l.69-12.323c.089-1.5917-1.178-2.9311-2.772-2.9311Zm-.009 25.4411c1.49 0 2.653-1.204 2.653-2.714s-1.163-2.696-2.653-2.696c-1.472 0-2.635 1.186-2.635 2.696 0 1.51 1.163 2.714 2.635 2.714Z"/>
  <path fill="#BCB9B3" d="M127.778 85.1988H87.4931c-1.2131 0-2.2239-1.1783-2.2239-2.121 0-1.1783 1.0108-2.1209 2.2239-2.1209h40.2849c1.213 0 2.224 1.1783 2.224 2.1209-.202.9427-1.213 2.121-2.224 2.121ZM95.804 94.743H70.8992c-1.2248 0-2.2455-1.1783-2.2455-2.121 0-1.1783 1.0207-2.1209 2.2455-2.1209H95.804c1.2248 0 2.2455 1.1783 2.2455 2.1209-.2042 1.1783-1.2248 2.121-2.2455 2.121ZM118.892 94.743h-13.566c-1.18 0-2.164-1.1783-2.164-2.121 0-1.1783.984-2.1209 2.164-2.1209h13.566c1.18 0 2.163 1.1783 2.163 2.1209-.196 1.1783-1.18 2.121-2.163 2.121Z"/>
  <path fill="#EDE5DA" d="M91.973 107.536H63.228c-1.2232 0-2.2425-1.178-2.2425-2.121 0-1.178 1.0193-2.12 2.2425-2.12h28.745c1.2232 0 2.2425 1.178 2.2425 2.12 0 1.179-.8155 2.121-2.2425 2.121ZM112.507 107.536h-11.02c-1.178 0-2.1588-1.178-2.1588-2.121 0-1.178.9808-2.12 2.1588-2.12h11.02c1.177 0 2.158 1.178 2.158 2.12 0 1.179-.785 2.121-2.158 2.121ZM75.3716 117.081H63.2143c-1.2157 0-2.2288-1.179-2.2288-2.121 0-1.179 1.0131-2.121 2.2288-2.121h12.1573c1.2158 0 2.2289 1.178 2.2289 2.121 0 1.178-.8105 2.121-2.2289 2.121ZM85.8161 117.081h-2.3736c-1.0955 0-2.0084-1.179-2.0084-2.121 0-1.179.9129-2.121 2.0084-2.121h2.3736c1.0955 0 2.0084 1.178 2.0084 2.121 0 1.178-.9129 2.121-2.0084 2.121ZM68.0024 73.4657h-5.0873c-1.0525 0-1.9296-1.1783-1.9296-2.1209 0-1.1783.8771-2.1209 1.9296-2.1209h5.0873c1.0525 0 1.9296 1.1783 1.9296 2.1209 0 1.1783-.8771 2.1209-1.9296 2.1209ZM112.457 73.4657H81.0878c-1.2045 0-2.2083-1.1783-2.2083-2.1209 0-1.1783 1.0038-2.1209 2.2083-2.1209h31.3692c1.205 0 2.209 1.1783 2.209 2.1209 0 1.1783-1.004 2.1209-2.209 2.1209ZM91.973 62.8611H63.228c-1.2232 0-2.2425-1.1783-2.2425-2.1209 0-1.1783 1.0193-2.1209 2.2425-2.1209h28.745c1.2232 0 2.2425 1.1783 2.2425 2.1209 0 1.1783-.8155 2.1209-2.2425 2.1209ZM130.316 62.8611h-28.745c-1.223 0-2.2428-1.1783-2.2428-2.1209 0-1.1783 1.0198-2.1209 2.2428-2.1209h28.745c1.223 0 2.242 1.1783 2.242 2.1209 0 1.1783-.815 2.1209-2.242 2.1209ZM150.849 62.8611h-11.02c-1.177 0-2.158-1.1783-2.158-2.1209 0-1.1783.981-2.1209 2.158-2.1209h11.02c1.178 0 2.159 1.1783 2.159 2.1209 0 1.1783-.785 2.1209-2.159 2.1209Z"/>
  <defs>
    <linearGradient id="paint0_linear_3871_353912" x1="113.257" x2="113.257" y1="31.1135" y2="125.98" gradientUnits="userSpaceOnUse">
      <stop stop-color="#FDFEFF"/>
      <stop offset=".9964" stop-color="#F5F2EC"/>
    </linearGradient>
    <linearGradient id="paint1_linear_3871_353912" x1="172.538" x2="53.1597" y1="33.2359" y2="39.0311" gradientUnits="userSpaceOnUse">
      <stop stop-color="#606060"/>
      <stop offset="1" stop-color="#7B7B7B"/>
    </linearGradient>
    <linearGradient id="paint2_linear_3871_353912" x1="204.161" x2="149.669" y1="82.4535" y2="82.6787" gradientUnits="userSpaceOnUse">
      <stop stop-color="#606060"/>
      <stop offset="1" stop-color="#7B7B7B"/>
    </linearGradient>
    <filter id="filter0_d_3871_353912" width="150.286" height="113.355" x="38.1558" y="26.0358" color-interpolation-filters="sRGB" filterUnits="userSpaceOnUse">
      <feFlood flood-opacity="0" result="BackgroundImageFix"/>
      <feColorMatrix in="SourceAlpha" result="hardAlpha" values="0 0 0 0 0 0 0 0 0 0 0 0 0 0 0 0 0 0 127 0"/>
      <feOffset dy="3.6"/>
      <feGaussianBlur stdDeviation="5.4"/>
      <feColorMatrix values="0 0 0 0 0.576471 0 0 0 0 0.501961 0 0 0 0 0.396078 0 0 0 0.37 0"/>
      <feBlend in2="BackgroundImageFix" result="effect1_dropShadow_3871_353912"/>
      <feBlend in="SourceGraphic" in2="effect1_dropShadow_3871_353912" result="shape"/>
    </filter>
  </defs>
</svg>

<svg width="231" height="160" viewBox="0 0 231 160" fill="none" xmlns="http://www.w3.org/2000/svg">
<path d="M112.932 147.8C151.889 147.8 183.47 117.176 183.47 79.4C183.47 41.6237 151.889 11 112.932 11C73.975 11 42.394 41.6237 42.394 79.4C42.394 117.176 73.975 147.8 112.932 147.8Z" fill="#EBEBEB"/>
<g filter="url(#filter0_d_3871_353912)">
<path d="M177.642 38.5836V119.643C177.642 122.576 175.152 124.991 172.127 124.991H54.4708C51.4464 124.991 48.9558 122.576 48.9558 119.643V38.5836C48.9558 35.651 51.4464 33.2358 54.4708 33.2358H172.127C175.152 33.2358 177.642 35.651 177.642 38.5836Z" fill="url(#paint0_linear_3871_353912)"/>
</g>
<rect x="55.7054" y="76.6639" width="116.006" height="22.9824" rx="2.7" fill="#EDE5DA"/>
<path d="M177.642 38.5836V42.4651H48.9558V38.5836C48.9558 35.651 51.4464 33.2358 54.4708 33.2358H172.127C175.152 33.2358 177.642 35.651 177.642 38.5836Z" fill="url(#paint1_linear_3871_353912)"/>
<path d="M54.7373 39.5324C55.6707 39.5324 56.4274 38.7987 56.4274 37.8936C56.4274 36.9885 55.6707 36.2548 54.7373 36.2548C53.8039 36.2548 53.0472 36.9885 53.0472 37.8936C53.0472 38.7987 53.8039 39.5324 54.7373 39.5324Z" fill="#F4F1EA"/>
<path opacity="0.6" d="M59.9854 39.5324C60.9188 39.5324 61.6754 38.7987 61.6754 37.8936C61.6754 36.9885 60.9188 36.2548 59.9854 36.2548C59.052 36.2548 58.2953 36.9885 58.2953 37.8936C58.2953 38.7987 59.052 39.5324 59.9854 39.5324Z" fill="#E4E0DA"/>
<path opacity="0.4" d="M65.3226 39.5324C66.256 39.5324 67.0127 38.7987 67.0127 37.8936C67.0127 36.9885 66.256 36.2548 65.3226 36.2548C64.3892 36.2548 63.6326 36.9885 63.6326 37.8936C63.6326 38.7987 64.3892 39.5324 65.3226 39.5324Z" fill="#BCB9B3"/>
<path d="M81.8463 53.3169H63.13C61.9603 53.3169 60.9855 52.1386 60.9855 51.196C60.9855 50.0177 61.9603 49.0751 63.13 49.0751H81.8463C83.0161 49.0751 83.9909 50.2534 83.9909 51.196C83.9909 52.3743 83.0161 53.3169 81.8463 53.3169Z" fill="#EDE5DA"/>
<path d="M76.7847 85.1988H63.0793C61.9372 85.1988 60.9855 84.0205 60.9855 83.0778C60.9855 81.8995 61.9372 80.9569 63.0793 80.9569H76.7847C77.9268 80.9569 78.8786 82.1352 78.8786 83.0778C78.6882 84.0205 77.7365 85.1988 76.7847 85.1988Z" fill="#BCB9B3"/>
<path d="M164.864 85.1988H138.593C137.392 85.1988 136.391 84.0205 136.391 83.0778C136.391 81.8995 137.392 80.9569 138.593 80.9569H164.864C166.065 80.9569 167.065 82.1352 167.065 83.0778C166.865 84.0205 165.865 85.1988 164.864 85.1988Z" fill="#BCB9B3"/>
<path d="M171.622 85.5301L148.897 121.753C146.153 126.126 149.297 131.809 154.459 131.809H199.909C205.071 131.809 208.215 126.126 205.471 121.753L182.746 85.5301C180.173 81.4278 174.195 81.4278 171.622 85.5301Z" fill="url(#paint2_linear_3871_353912)"/>
<path d="M177.325 97.2129C175.731 97.2129 174.465 98.5523 174.554 100.144L175.243 112.467C175.305 113.572 176.219 114.436 177.325 114.436C178.432 114.436 179.345 113.572 179.407 112.467L180.097 100.144C180.186 98.5523 178.919 97.2129 177.325 97.2129ZM177.316 122.654C178.806 122.654 179.969 121.45 179.969 119.94C179.969 118.43 178.806 117.244 177.316 117.244C175.844 117.244 174.681 118.43 174.681 119.94C174.681 121.45 175.844 122.654 177.316 122.654Z" fill="white"/>
<path d="M127.778 85.1988H87.4931C86.28 85.1988 85.2692 84.0205 85.2692 83.0778C85.2692 81.8995 86.28 80.9569 87.4931 80.9569H127.778C128.991 80.9569 130.002 82.1352 130.002 83.0778C129.8 84.0205 128.789 85.1988 127.778 85.1988Z" fill="#BCB9B3"/>
<path d="M95.804 94.743H70.8992C69.6744 94.743 68.6537 93.5647 68.6537 92.622C68.6537 91.4437 69.6744 90.5011 70.8992 90.5011H95.804C97.0288 90.5011 98.0495 91.6794 98.0495 92.622C97.8453 93.8003 96.8247 94.743 95.804 94.743Z" fill="#BCB9B3"/>
<path d="M118.892 94.743H105.326C104.146 94.743 103.162 93.5647 103.162 92.622C103.162 91.4437 104.146 90.5011 105.326 90.5011H118.892C120.072 90.5011 121.055 91.6794 121.055 92.622C120.859 93.8003 119.875 94.743 118.892 94.743Z" fill="#BCB9B3"/>
<path d="M91.973 107.536H63.228C62.0048 107.536 60.9855 106.358 60.9855 105.415C60.9855 104.237 62.0048 103.295 63.228 103.295H91.973C93.1962 103.295 94.2155 104.473 94.2155 105.415C94.2155 106.594 93.4 107.536 91.973 107.536Z" fill="#EDE5DA"/>
<path d="M112.507 107.536H101.487C100.309 107.536 99.3282 106.358 99.3282 105.415C99.3282 104.237 100.309 103.295 101.487 103.295H112.507C113.684 103.295 114.665 104.473 114.665 105.415C114.665 106.594 113.88 107.536 112.507 107.536Z" fill="#EDE5DA"/>
<path d="M75.3716 117.081H63.2143C61.9986 117.081 60.9855 115.902 60.9855 114.96C60.9855 113.781 61.9986 112.839 63.2143 112.839H75.3716C76.5874 112.839 77.6005 114.017 77.6005 114.96C77.6005 116.138 76.79 117.081 75.3716 117.081Z" fill="#EDE5DA"/>
<path d="M85.8161 117.081H83.4425C82.347 117.081 81.4341 115.902 81.4341 114.96C81.4341 113.781 82.347 112.839 83.4425 112.839H85.8161C86.9116 112.839 87.8245 114.017 87.8245 114.96C87.8245 116.138 86.9116 117.081 85.8161 117.081Z" fill="#EDE5DA"/>
<path d="M68.0024 73.4657H62.9151C61.8626 73.4657 60.9855 72.2874 60.9855 71.3448C60.9855 70.1665 61.8626 69.2239 62.9151 69.2239H68.0024C69.0549 69.2239 69.932 70.4022 69.932 71.3448C69.932 72.5231 69.0549 73.4657 68.0024 73.4657Z" fill="#EDE5DA"/>
<path d="M112.457 73.4657H81.0878C79.8833 73.4657 78.8795 72.2874 78.8795 71.3448C78.8795 70.1665 79.8833 69.2239 81.0878 69.2239H112.457C113.662 69.2239 114.666 70.4022 114.666 71.3448C114.666 72.5231 113.662 73.4657 112.457 73.4657Z" fill="#EDE5DA"/>
<path d="M91.973 62.8611H63.228C62.0048 62.8611 60.9855 61.6828 60.9855 60.7402C60.9855 59.5619 62.0048 58.6193 63.228 58.6193H91.973C93.1962 58.6193 94.2155 59.7976 94.2155 60.7402C94.2155 61.9185 93.4 62.8611 91.973 62.8611Z" fill="#EDE5DA"/>
<path d="M130.316 62.8611H101.571C100.348 62.8611 99.3282 61.6828 99.3282 60.7402C99.3282 59.5619 100.348 58.6193 101.571 58.6193H130.316C131.539 58.6193 132.558 59.7976 132.558 60.7402C132.558 61.9185 131.743 62.8611 130.316 62.8611Z" fill="#EDE5DA"/>
<path d="M150.849 62.8611H139.829C138.652 62.8611 137.671 61.6828 137.671 60.7402C137.671 59.5619 138.652 58.6193 139.829 58.6193H150.849C152.027 58.6193 153.008 59.7976 153.008 60.7402C153.008 61.9185 152.223 62.8611 150.849 62.8611Z" fill="#EDE5DA"/>
<defs>
<filter id="filter0_d_3871_353912" x="38.1558" y="26.0358" width="150.286" height="113.355" filterUnits="userSpaceOnUse" color-interpolation-filters="sRGB">
<feFlood flood-opacity="0" result="BackgroundImageFix"/>
<feColorMatrix in="SourceAlpha" type="matrix" values="0 0 0 0 0 0 0 0 0 0 0 0 0 0 0 0 0 0 127 0" result="hardAlpha"/>
<feOffset dy="3.6"/>
<feGaussianBlur stdDeviation="5.4"/>
<feColorMatrix type="matrix" values="0 0 0 0 0.576471 0 0 0 0 0.501961 0 0 0 0 0.396078 0 0 0 0.37 0"/>
<feBlend mode="normal" in2="BackgroundImageFix" result="effect1_dropShadow_3871_353912"/>
<feBlend mode="normal" in="SourceGraphic" in2="effect1_dropShadow_3871_353912" result="shape"/>
</filter>
<linearGradient id="paint0_linear_3871_353912" x1="113.257" y1="31.1135" x2="113.257" y2="125.98" gradientUnits="userSpaceOnUse">
<stop stop-color="#FDFEFF"/>
<stop offset="0.9964" stop-color="#F5F2EC"/>
</linearGradient>
<linearGradient id="paint1_linear_3871_353912" x1="172.538" y1="33.2359" x2="53.1597" y2="39.0311" gradientUnits="userSpaceOnUse">
<stop stop-color="#606060"/>
<stop offset="1" stop-color="#7B7B7B"/>
</linearGradient>
<linearGradient id="paint2_linear_3871_353912" x1="204.161" y1="82.4535" x2="149.669" y2="82.6787" gradientUnits="userSpaceOnUse">
<stop stop-color="#606060"/>
<stop offset="1" stop-color="#7B7B7B"/>
</linearGradient>
</defs>
</svg>
